X: 39
M: 4/4
L: 1/8
K: F
|:"F"FAcd "E/C7"cA^GA | "Dm"FAcd "C7"cA^GA \
| "F"FAcd "F#/D7"cBAc | "Gm"B2G2 "G7"G2-G^d |
  "C"eGfG "G7"gGfG | "C"eGgG "B/G7"fGeG \
| "C"ec=Bc "E/C7"dcde |1 "F"fAeA "C7"dAcA :|2 "F"f2c2 "C7"d2e2 ||
|:"F"fcgc "E/C"acgc | "Dm"fcac "C7"gcfc \
| "F"fcgc "A/F"acgc | "G/C7"e2c2 "C7"c2-cd |
  "C"ecfc "G/C"gcfc | "C"ecgc "G/C"fcec \
| "C"ec=Bc "E/C7"dcde |1 "F"fAeA "C7"dAcA :|2 "F"f4 "F"f4 |]
tunes which have something about them which always seems to get the Country Dancers "going".  I first
recorded this as the original for John Drewry's "Crossing the Line" on one of the Highlander CD's.
Edinburgh City Chambers to celebrate 75 years of the RSCDS.


